public/formular-icons/greece/lower-pi.svg

<svg style="vertical-align:-.025ex" xmlns="http://www.w3.org/2000/svg" width="1.29ex" height="1ex" viewBox="0 -431 570 442" xmlns:xlink="http://www.w3.org/1999/xlink"><defs><path id="a" d="M132-11q-34 0-34 33v11l13 28q75 158 109 273l8 24h-32q-38 0-54-3t-39-19q-11-7-22-18t-19-21-9-12q-2-1-15-1-19 0-19 10 0 6 19 35t55 62 71 38q7 2 225 2 160 0 164-1 20-7 20-28 0-31-32-42-6-2-69-2h-64l-3-17q-12-72-12-119 0-52 9-93t19-64 10-28q0-17-14-32t-36-15q-11 0-18 3t-16 24-16 60q-1 9-1 44 0 49 9 105t18 92 10 40h-98l-1-4q0-3-19-79t-43-161-31-97q-11-28-43-28Z"/></defs><g stroke="currentColor" fill="currentColor" stroke-width="0"><use data-c="1D70B" xlink:href="#a" transform="scale(1 -1)"/></g></svg>

<svg style="vertical-align: -0.025ex" xmlns="http://www.w3.org/2000/svg" width="1.29ex" height="1ex" role="img" focusable="false" viewBox="0 -431 570 442" xmlns:xlink="http://www.w3.org/1999/xlink"><defs><path id="MJX-116-TEX-I-1D70B" d="M132 -11Q98 -11 98 22V33L111 61Q186 219 220 334L228 358H196Q158 358 142 355T103 336Q92 329 81 318T62 297T53 285Q51 284 38 284Q19 284 19 294Q19 300 38 329T93 391T164 429Q171 431 389 431Q549 431 553 430Q573 423 573 402Q573 371 541 360Q535 358 472 358H408L405 341Q393 269 393 222Q393 170 402 129T421 65T431 37Q431 20 417 5T381 -10Q370 -10 363 -7T347 17T331 77Q330 86 330 121Q330 170 339 226T357 318T367 358H269L268 354Q268 351 249 275T206 114T175 17Q164 -11 132 -11Z"></path></defs><g stroke="currentColor" fill="currentColor" stroke-width="0" transform="scale(1,-1)"><g data-mml-node="math"><g data-mml-node="mi"><use data-c="1D70B" xlink:href="#MJX-116-TEX-I-1D70B"></use></g></g></g></svg>
